resources/svg/table-delete.svg

<svg xmlns="http://www.w3.org/2000/svg" viewBox="0 0 14 14" fill="currentColor"><path d="M2,0 L12,0 C13.1045695,0 14,0.8954305 14,2 L14,12 C14,13.1045695 13.1045695,14 12,14 L2,14 C0.8954305,14 0,13.1045695 0,12 L0,2 C0,0.8954305 0.8954305,0 2,0 Z M2,4 L2,12 L12,12 L12,4 L2,4 Z M7,9.41421356 L5.58578644,10.8284271 C5.19526215,11.2189514 4.56209717,11.2189514 4.17157288,10.8284271 C3.78104858,10.4379028 3.78104858,9.80473785 4.17157288,9.41421356 L5.58578644,8 L4.17157288,6.58578644 C3.78104858,6.19526215 3.78104858,5.56209717 4.17157288,5.17157288 C4.56209717,4.78104858 5.19526215,4.78104858 5.58578644,5.17157288 L7,6.58578644 L8.41421356,5.17157288 C8.80473785,4.78104858 9.43790283,4.78104858 9.82842712,5.17157288 C10.2189514,5.56209717 10.2189514,6.19526215 9.82842712,6.58578644 L8.41421356,8 L9.82842712,9.41421356 C10.2189514,9.80473785 10.2189514,10.4379028 9.82842712,10.8284271 C9.43790283,11.2189514 8.80473785,11.2189514 8.41421356,10.8284271 L7,9.41421356 Z"/></svg>

<svg xmlns="http://www.w3.org/2000/svg" fill="currentColor" viewBox="0 0 14 14"><path d="M2 0h10a2 2 0 0 1 2 2v10a2 2 0 0 1-2 2H2a2 2 0 0 1-2-2V2a2 2 0 0 1 2-2Zm0 4v8h10V4H2Zm5 5.414-1.414 1.414a1 1 0 1 1-1.414-1.414L5.586 8 4.172 6.586a1 1 0 1 1 1.414-1.414L7 6.586l1.414-1.414a1 1 0 1 1 1.414 1.414L8.414 8l1.414 1.414a1 1 0 0 1-1.414 1.414L7 9.414Z"/></svg>
